flags/GIB.svg

<?xml version="1.0" encoding="UTF-8" standalone="no"?>
<svg
   xmlns:dc="http://purl.org/dc/elements/1.1/"
   xmlns:cc="http://creativecommons.org/ns#"
   xmlns:rdf="http://www.w3.org/1999/02/22-rdf-syntax-ns#"
   xmlns:svg="http://www.w3.org/2000/svg"
   xmlns="http://www.w3.org/2000/svg"
   xmlns:xlink="http://www.w3.org/1999/xlink"
   xmlns:sodipodi="http://sodipodi.sourceforge.net/DTD/sodipodi-0.dtd"
   xmlns:inkscape="http://www.inkscape.org/namespaces/inkscape"
   viewBox="0 0 39.906961 30.225302"
   width="798.13922"
   height="604.50604"
   version="1.1"
   id="svg106"
   sodipodi:docname="GIB.svg"
   inkscape:version="1.0.1 (0767f8302a, 2020-10-17)">
  <metadata
     id="metadata112">
    <rdf:RDF>
      <cc:Work
         rdf:about="">
        <dc:format>image/svg+xml</dc:format>
        <dc:type
           rdf:resource="http://purl.org/dc/dcmitype/StillImage" />
        <dc:title></dc:title>
      </cc:Work>
    </rdf:RDF>
  </metadata>
  <defs
     id="defs110" />
  <sodipodi:namedview
     pagecolor="#ffffff"
     bordercolor="#666666"
     borderopacity="1"
     objecttolerance="10"
     gridtolerance="10"
     guidetolerance="10"
     inkscape:pageopacity="0"
     inkscape:pageshadow="2"
     inkscape:window-width="1920"
     inkscape:window-height="1043"
     id="namedview108"
     showgrid="false"
     inkscape:zoom="1"
     inkscape:cx="437.59373"
     inkscape:cy="453.07652"
     inkscape:window-x="0"
     inkscape:window-y="0"
     inkscape:window-maximized="1"
     inkscape:current-layer="svg106" />
  <clipPath
     id="s">
    <path
       d="M 0,0 V 30 H 60 V 0 Z"
       id="path88" />
  </clipPath>
  <clipPath
     id="t">
    <path
       d="m 30,15 h 30 v 15 z m 0,0 V 30 H 0 Z m 0,0 H 0 V 0 Z m 0,0 V 0 h 30 z"
       id="path91" />
  </clipPath>
  <g
     id="g1851"
     transform="matrix(0.078125,0,0,0.1171875,-0.09300536,0.22552808)">
    <rect
       fill="#da000c"
       width="512"
       height="256"
       id="rect1703"
       x="0"
       y="0" />
    <rect
       fill="#ffffff"
       width="512"
       height="171.5"
       id="rect1705"
       x="0"
       y="0" />
    <g
       stroke="#000000"
       id="g1794">
      <g
         id="castle_half"
         fill="#da000c"
         stroke-linecap="square">
        <rect
           fill="#000000"
           stroke="none"
           width="64"
           height="43.992859"
           x="196.57106"
           y="116.30338"
           id="rect1707" />
        <path
           d="M 229.81889,153.86465 H 190.75 l -8.66011,5.69979 v 6.03967 h 47.729"
           id="path1709" />
        <path
           d="m 213.46875,128.59375 c 5.62482,0 10.21875,4.68928 10.21875,10.46875 v 14.78125 h 7.34375 v -56 H 190.75 v 56 h 12.5 V 139.0625 c -1e-5,-5.55372 4.51491,-10.46875 10.21875,-10.46875 z"
           id="path1711" />
        <rect
           fill="#000000"
           stroke="none"
           width="18.523308"
           height="33.9594"
           x="204.5282"
           y="59.961655"
           id="rect1713" />
        <path
           d="m 223,88.65625 h -16.20892 v -5.75 h -11.88483 v 5.75 h -8.0625 v -5.75 h -4.8125 v 10.4375 H 223 m -36.15625,-0.03771 h 34.97039 v 4.537714 h -34.97039 z"
           id="path1715" />
        <path
           d="m 200.71875,47.625 v 35.28125 h 6.07233 v -9.6875 c 0,-3.629302 2.56206,-6.599364 6.14642,-6.78125 0.11562,-0.0059 0.22668,0 0.34375,0 3.74638,-3e-6 6.78125,3.034874 6.78125,6.78125 v 9.6875 h 5.78125 V 47.625 Z"
           id="path1717" />
        <path
           d="M 198.53125,42.84375 V 47.625 h 29.25 v -4.78125 z"
           id="path1719" />
        <path
           d="m 194.78125,33.6875 v 9.15625 H 229.875 V 33.6875 h -5.40625 v 4.65625 H 217.9375 V 33.6875 h -9.96875 v 4.65625 H 201.4375 V 33.6875 Z"
           id="path1721" />
        <path
           d="M 182.08989,159.56444 H 230"
           id="path1723" />
        <path
           d="m 261,156.8125 h -32.4375 l -9.78125,4.71875 v 7.03125 H 261"
           id="path1725" />
        <path
           stroke-linecap="butt"
           d="M 218.771,161.51923 H 262"
           id="path1727" />
      </g>
      <use
         xlink:href="#castle_half"
         transform="matrix(-1,0,0,1,512,0)"
         id="use1730"
         x="0"
         y="0"
         width="100%"
         height="100%" />
      <g
         fill="#f8d80e"
         id="g1776">
        <g
           stroke-linecap="round"
           id="g1764">
          <path
             stroke-width="0.768"
             d="m 273.297,150.031 c -2.65428,0.88339 -5.05329,2.369 -7.46888,3.75283 -3.1004,1.83163 -6.10683,3.82731 -8.90451,6.09885 -0.98462,0.64912 -1.92929,1.36065 -2.68911,2.27332 -1.02583,0.8776 -2.06486,2.05478 -1.86885,3.51297 0.0518,0.64315 0.87359,-0.75523 1.41401,-0.82297 0.94235,-0.54095 2.0838,-0.7154 3.14219,-0.4713 1.27117,-1.33857 2.90994,-2.23563 4.3249,-3.40609 3.00467,-2.24222 6.23664,-4.16769 9.52502,-5.96082 1.1481,-0.58838 2.30104,-1.18568 3.52508,-1.60184 -0.33328,-1.12498 -0.66657,-2.24997 -0.99985,-3.37495 z"
             id="path1732" />
          <path
             d="m 260.40041,157.3913 v 3.9119"
             id="path1734" />
          <path
             d="m 262.81691,155.68544 v 3.88277"
             id="path1736" />
          <path
             d="m 265.23339,154.17984 v 3.85813"
             id="path1738" />
          <path
             d="m 267.64986,152.69367 v 3.98131"
             id="path1740" />
          <path
             stroke-width="0.768"
             d="m 238.891,150.156 c -0.39583,1.10417 -0.79167,2.20833 -1.1875,3.3125 5.53699,2.10036 10.8089,4.87874 15.7978,8.06036 1.69067,1.15075 3.46718,2.26632 4.79593,3.84589 0.2927,0.81098 -0.51392,1.48903 -1.31413,1.24403 -0.73225,-0.24871 -1.45351,-0.53169 -2.22629,-0.004 -1.10637,0.50311 -2.10598,2.1416 -0.42575,2.69112 2.31528,1.55489 6.08158,0.87915 7.19454,-1.84522 0.58146,-1.40134 0.61878,-3.19523 -0.50753,-4.34456 -2.06261,-2.36404 -4.79728,-4.00804 -7.4215,-5.67182 -4.68917,-2.82023 -9.57283,-5.37389 -14.7055,-7.28801 z"
             id="path1742" />
          <path
             d="m 254.04985,158.03521 -0.31238,3.33948"
             id="path1744" />
          <path
             d="m 256.8319,159.73914 -0.86199,3.26968"
             id="path1746" />
          <path
             d="m 259.80442,162.01152 -1.8089,2.53732"
             id="path1748" />
          <path
             d="m 260.71528,168.18078 -2.61016,-1.40046"
             id="path1750" />
          <path
             d="m 261.52792,165.42898 -2.99541,0.28045"
             id="path1752" />
          <path
             d="m 257.66497,169.7646 -0.2051,-2.63232"
             id="path1754" />
          <path
             d="m 256.56809,166.75559 -2.473,1.8222"
             id="path1756" />
          <path
             d="m 244.67669,152.9368 v 3.11504"
             id="path1758" />
          <path
             d="m 250.96338,156.24386 v 3.53419"
             id="path1760" />
          <path
             d="m 247.82004,154.59318 v 3.31892"
             id="path1762" />
        </g>
        <path
           d="m 235.78125,227.5625 v 8.03125 h 5.03125 v -4.03125 h 6.84375 v 4.03125 h 5.40625 v -8.03125 z m 0,11.0625 v 8.0625 h 17.28125 v -8.0625 h -5.40625 v 4.03125 H 240.8125 V 238.625 Z"
           id="path1766" />
        <rect
           width="4.9902272"
           height="58.115017"
           x="253.05186"
           y="193.65144"
           id="rect1768" />
        <rect
           width="4.9902272"
           height="50.060368"
           x="253.05186"
           y="198.6788"
           id="rect1770" />
        <path
           stroke-width="1.024"
           d="m 255.54688,179.40625 10.625,6.1875 -10.625,6.15625 -10.625,-6.15625 z m -14.21875,3.96875 h -2.78125 v 4.4375 h 2.78125 l 14.21875,8.25 14.21875,-8.25 h 2.78125 v -4.4375 h -2.78125 l -14.21875,-8.25 z"
           id="path1772" />
        <path
           stroke-width="1.024"
           d="m 255.344,164.281 c -2.41872,0.33922 -4.22593,2.73018 -4.09375,5.13412 0.009,3.73773 -0.0185,7.47634 0.0141,11.2135 0.12824,2.40829 2.23219,4.56615 4.6744,4.58823 1.98493,0.18804 3.97892,-0.97232 4.81154,-2.77961 -0.57292,-0.34375 -1.14583,-0.6875 -1.71875,-1.03125 -0.44378,1.18388 -1.72345,1.91762 -2.96875,1.78125 -1.63507,0.046 -2.95917,-1.54398 -2.8125,-3.13412 0.01,-3.71344 -0.0192,-7.42801 0.0146,-11.1407 0.0899,-1.5151 1.53488,-2.75487 3.04795,-2.60016 0.6265,-0.17973 1.48748,0.67715 1.8747,-0.0623 0.5838,-0.82944 -0.41442,-1.47737 -0.96875,-1.9374 -0.61348,-0.0841 -1.25418,-0.008 -1.8747,-0.0316 z m 5.78125,3.90625 c -0.39638,0.7459 -1.21626,1.18923 -1.875,1.58041 v 7.51334 c 0.66667,0.38542 1.33333,0.77083 2,1.15625 -0.008,-3.20377 0.0153,-6.40813 -0.0117,-9.61152 -0.0315,-0.19722 -0.008,-0.4984 -0.11328,-0.63848 z"
           id="path1774" />
      </g>
      <g
         fill="#da000c"
         id="g1792">
        <rect
           fill="#000000"
           stroke="none"
           width="29.328571"
           height="53.254513"
           x="240.80301"
           y="38.351128"
           id="rect1778" />
        <path
           d="m 238.75,38.375 v 44.5625 h 9.3125 V 69.71875 c 0,-3.048928 1.95251,-7.28125 7.9375,-7.28125 5.98499,0 7.9375,4.232322 7.9375,7.28125 V 82.9375 H 273.25 V 38.375 Z m 15.8125,5 h 2.875 v 15.25 h -2.875 z m -8.25,3 h 2.90625 v 11.15625 h -2.90625 z m 16.46875,0 h 2.90625 v 11.15625 h -2.90625 z"
           id="path1780" />
        <path
           d="m 235.59375,31.96875 v 6.34375 h 40.8125 v -6.34375 z"
           id="path1782" />
        <path
           d="m 231.75,24.59375 v 7.375 h 48.5 v -7.375 h -6.09375 v 4.0625 h -6.875 v -4.0625 h -7.84375 v 4.0625 h -6.875 v -4.0625 h -7.84375 v 4.0625 h -6.875 v -4.0625 z"
           id="path1784" />
        <path
           d="m 222.75,97.84375 v 4.59375 h 66.5 v -4.59375 z"
           id="path1786" />
        <path
           d="m 220.03125,82.90625 v 14.9375 h 71.9375 v -14.9375 h -6.8125 v 5.75 h -9.0625 v -5.75 H 263.9375 v 5.75 h -15.875 v -5.75 h -12.15625 v 5.75 h -9.0625 v -5.75 z"
           id="path1788" />
        <path
           stroke-linejoin="round"
           d="m 228.6875,102.4375 v 54.34375 h 12.84375 V 136.4375 c 0,-9.58273 6.3963,-14.09375 14.46875,-14.09375 7.75894,0 14.46875,4.51102 14.46875,14.09375 v 20.34375 H 283.3125 V 102.4375 Z"
           id="path1790" />
      </g>
    </g>
  </g>
</svg>

<?xml version="1.0" encoding="UTF-8"?>
<svg xmlns="http://www.w3.org/2000/svg" xmlns:xlink="http://www.w3.org/1999/xlink" width="1000" height="500" viewBox="0 0 512 256">
<rect fill="#da000c" width="512" height="256"/>
<rect fill="#fff" width="512" height="171.5"/>
<g stroke="#000">
<g id="castle_half" fill="#da000c" stroke-linecap="square">
<rect fill="#000" stroke="none" width="64" height="43.992859" x="196.57106" y="116.30338"/>
<path d="M229.81889,153.86465H190.75L182.08989,159.56444V165.60411H229.81889"/>
<path d="M213.46875,128.59375C219.09357,128.59375 223.6875,133.28303 223.6875,139.0625V153.84375H231.03125V97.84375H190.75V153.84375H203.25V139.0625C203.24999,133.50878 207.76491,128.59375 213.46875,128.59375z"/>
<rect fill="#000" stroke="none" width="18.523308" height="33.9594" x="204.5282" y="59.961655"/>
<path d="M223,88.65625H206.79108V82.90625H194.90625V88.65625H186.84375V82.90625H182.03125V93.34375H223M186.84375,93.306038H221.81414V97.843752H186.84375z"/>
<path d="M200.71875,47.625V82.90625H206.79108V73.21875C206.79108,69.589448 209.35314,66.619386 212.9375,66.4375C213.05312,66.431633 213.16418,66.4375 213.28125,66.4375C217.02763,66.437497 220.0625,69.472374 220.0625,73.21875V82.90625H225.84375V47.625z"/>
<path d="M198.53125,42.84375V47.625H227.78125V42.84375z"/>
<path d="M194.78125,33.6875V42.84375H229.875V33.6875H224.46875V38.34375H217.9375V33.6875H207.96875V38.34375H201.4375V33.6875z"/>
<path d="M182.08989,159.56444H230"/>
<path d="M261,156.8125H228.5625L218.78125,161.53125V168.5625H261"/>
<path stroke-linecap="butt" d="M218.771,161.51923H262"/>
</g>
<use xlink:href="#castle_half" transform="matrix(-1,0,0,1,512,0)"/>
<g fill="#f8d80e">
<g stroke-linecap="round">
<path stroke-width="0.768" d="m273.297,150.031c-2.65428,0.88339-5.05329,2.369-7.46888,3.75283-3.1004,1.83163-6.10683,3.82731-8.90451,6.09885-0.98462,0.64912-1.92929,1.36065-2.68911,2.27332-1.02583,0.8776-2.06486,2.05478-1.86885,3.51297,0.0518,0.64315,0.87359-0.75523,1.41401-0.82297,0.94235-0.54095,2.0838-0.7154,3.14219-0.4713,1.27117-1.33857,2.90994-2.23563,4.3249-3.40609,3.00467-2.24222,6.23664-4.16769,9.52502-5.96082,1.1481-0.58838,2.30104-1.18568,3.52508-1.60184-0.33328-1.12498-0.66657-2.24997-0.99985-3.37495z"/>
<path d="M260.40041,157.3913V161.3032"/>
<path d="M262.81691,155.68544V159.56821"/>
<path d="M265.23339,154.17984V158.03797"/>
<path d="M267.64986,152.69367V156.67498"/>
<path stroke-width="0.768" d="m238.891,150.156c-0.39583,1.10417-0.79167,2.20833-1.1875,3.3125,5.53699,2.10036,10.8089,4.87874,15.7978,8.06036,1.69067,1.15075,3.46718,2.26632,4.79593,3.84589,0.2927,0.81098-0.51392,1.48903-1.31413,1.24403-0.73225-0.24871-1.45351-0.53169-2.22629-0.004-1.10637,0.50311-2.10598,2.1416-0.42575,2.69112,2.31528,1.55489,6.08158,0.87915,7.19454-1.84522,0.58146-1.40134,0.61878-3.19523-0.50753-4.34456-2.06261-2.36404-4.79728-4.00804-7.4215-5.67182-4.68917-2.82023-9.57283-5.37389-14.7055-7.28801z"/>
<path d="M254.04985,158.03521 253.73747,161.37469"/>
<path d="M256.8319,159.73914 255.96991,163.00882"/>
<path d="M259.80442,162.01152 257.99552,164.54884"/>
<path d="M260.71528,168.18078 258.10512,166.78032"/>
<path d="M261.52792,165.42898 258.53251,165.70943"/>
<path d="M257.66497,169.7646 257.45987,167.13228"/>
<path d="M256.56809,166.75559 254.09509,168.57779"/>
<path d="M244.67669,152.9368V156.05184"/>
<path d="M250.96338,156.24386V159.77805"/>
<path d="M247.82004,154.59318V157.9121"/>
</g>
<path d="M235.78125,227.5625V235.59375H240.8125V231.5625H247.65625V235.59375H253.0625V227.5625zM235.78125,238.625V246.6875H253.0625V238.625H247.65625V242.65625H240.8125V238.625z"/>
<rect width="4.9902272" height="58.115017" x="253.05186" y="193.65144"/>
<rect width="4.9902272" height="50.060368" x="253.05186" y="198.6788"/>
<path stroke-width="1.024" d="M255.54688,179.40625 266.17188,185.59375 255.54688,191.75 244.92188,185.59375zM241.32813,183.375H238.54688V187.8125H241.32813L255.54688,196.0625 269.76563,187.8125H272.54688V183.375H269.76563L255.54688,175.125z"/>
<path stroke-width="1.024" d="m255.344,164.281c-2.41872,0.33922-4.22593,2.73018-4.09375,5.13412,0.009,3.73773-0.0185,7.47634,0.0141,11.2135,0.12824,2.40829,2.23219,4.56615,4.6744,4.58823,1.98493,0.18804,3.97892-0.97232,4.81154-2.77961-0.57292-0.34375-1.14583-0.6875-1.71875-1.03125-0.44378,1.18388-1.72345,1.91762-2.96875,1.78125-1.63507,0.046-2.95917-1.54398-2.8125-3.13412,0.01-3.71344-0.0192-7.42801,0.0146-11.1407,0.0899-1.5151,1.53488-2.75487,3.04795-2.60016,0.6265-0.17973,1.48748,0.67715,1.8747-0.0623,0.5838-0.82944-0.41442-1.47737-0.96875-1.9374-0.61348-0.0841-1.25418-0.008-1.8747-0.0316zm5.78125,3.90625c-0.39638,0.7459-1.21626,1.18923-1.875,1.58041v7.51334c0.66667,0.38542,1.33333,0.77083,2,1.15625-0.008-3.20377,0.0153-6.40813-0.0117-9.61152-0.0315-0.19722-0.008-0.4984-0.11328-0.63848z"/>
</g>
<g fill="#da000c">
<rect fill="#000" stroke="none" width="29.328571" height="53.254513" x="240.80301" y="38.351128"/>
<path d="M238.75,38.375V82.9375H248.0625V69.71875C248.0625,66.669822 250.01501,62.4375 256,62.4375C261.98499,62.4375 263.9375,66.669822 263.9375,69.71875V82.9375H273.25V38.375zM254.5625,43.375H257.4375V58.625H254.5625zM246.3125,46.375H249.21875V57.53125H246.3125zM262.78125,46.375H265.6875V57.53125H262.78125z"/>
<path d="M235.59375,31.96875V38.3125H276.40625V31.96875z"/>
<path d="M231.75,24.59375V31.96875H280.25V24.59375H274.15625V28.65625H267.28125V24.59375H259.4375V28.65625H252.5625V24.59375H244.71875V28.65625H237.84375V24.59375z"/>
<path d="M222.75,97.84375V102.4375H289.25V97.84375z"/>
<path d="M220.03125,82.90625V97.84375H291.96875V82.90625H285.15625V88.65625H276.09375V82.90625H263.9375V88.65625H248.0625V82.90625H235.90625V88.65625H226.84375V82.90625z"/>
<path stroke-linejoin="round" d="M228.6875,102.4375V156.78125H241.53125V136.4375C241.53125,126.85477 247.92755,122.34375 256,122.34375C263.75894,122.34375 270.46875,126.85477 270.46875,136.4375V156.78125H283.3125V102.4375z"/>
</g>
</g>
</svg>
